X:18
T:Country Coll. (p)1651.PLFD1.018, The
T:Sir Nicholas Culley. (p)1651.PLFD1.018
M:6/4
L:1/4
Q:3/4=90
S:Playford, Dancing Master,1st Ed.,1651.
O:England;London
H:1651.
Z:Chris Partington.
K:G
g2d gdG|B>cd e2d|efg fga|dge f2d:|
|:e3d 2B|cde d2B|gd2 B>cd|Aa2 b2g:|
